app/_includes/svgs/client-logos/logo_north-kingdom.min.svg

<svg xmlns="http://www.w3.org/2000/svg" viewBox="0 0 250 100" enable-background="new 0 0 250 100"><path fill="#231F20" d="M80.2 81.7l-37.4 18.3-37.3-18.3v-75.3l37.4-6.4 37.4 6.4-.1 75.3m-21-43.6v-9.2h-5.6v9.2h-5.3v-17.5h-10.8v2.6c-2.3-1.5-4.6-2.4-6.9-2.6-2.2-.3-4.3.1-6.2 1.1-1.9.9-3.3 2.4-4.4 4.3-1.1 2-1.6 4.3-1.6 6.9v23.4h10.8v-24.3c0-5 1.4-7.8 4.1-8.3.9-.2 1.9-.1 2.8.4.9.4 1.3.7 1.3.9v49.6h4.3l6.6-6.3v-25.5h8.6v13.5h10.8v-18.2h-8.5"/></svg>

<svg xmlns="http://www.w3.org/2000/svg" viewBox="0 0 250 100" enable-background="new 0 0 250 100"><path fill="#231F20" d="M80.2 81.7L42.8 100 5.5 81.7V6.4L42.9 0l37.4 6.4-.1 75.3m-21-43.6v-9.2h-5.6v9.2h-5.3V20.6H37.5v2.6c-2.3-1.5-4.6-2.4-6.9-2.6-2.2-.3-4.3.1-6.2 1.1-1.9.9-3.3 2.4-4.4 4.3-1.1 2-1.6 4.3-1.6 6.9v23.4h10.8V32c0-5 1.4-7.8 4.1-8.3.9-.2 1.9-.1 2.8.4.9.4 1.3.7 1.3.9v49.6h4.3l6.6-6.3V42.8h8.6v13.5h10.8V38.1h-8.5"/></svg>
